svg/UnitedNationsOCHA-Humanitarian/food_NFI_flour_icon.svg

<svg xmlns="http://www.w3.org/2000/svg" viewBox="0 0 32 32" enable-background="new 0 0 32 32"><path fill="#407cca" d="m24.498 5.995h-16.997v-1.995h16.997v1.995m1.028 2.55v17.755c0 .935-.766 1.7-1.7 1.7h-15.653c-.934 0-1.7-.766-1.7-1.7v-17.755c0-.935.766-1.7 1.7-1.7h15.653c.935 0 1.7.766 1.7 1.7m-7.299 5.219c1.409 1.411 2.928-3.078 2.928-3.078-.466.106-4.332 1.673-2.928 3.078m-2.285.676c.594.592 2.071.111 1.287-1.969-.696-1.845.313-2.648.313-2.648-.481.163-2.925 3.291-1.6 4.617m-1.912 1.913c.594.592 2.075.109 1.288-1.969-.697-1.845.313-2.648.313-2.648-.483.156-2.933 3.289-1.601 4.617m-1.922 3.317c-.256-.259-.322-.61-.481-.451l-1.575 1.925c-.175.18.278.937.65.565l1.853-1.561c.159-.159-.191-.226-.447-.478m1.241-3.314c-.697-1.849.313-2.648.313-2.648-.484.159-2.932 3.286-1.604 4.614.593.598 2.078.11 1.291-1.966m4.753 1.794c0 0-.803 1.01-2.65.308-2.075-.783-2.563.698-1.962 1.295 1.324 1.322 4.455-1.125 4.612-1.603m1.971-1.972c0 0-.8 1.01-2.653.308-2.071-.783-2.562.697-1.962 1.295 1.325 1.325 4.456-1.122 4.615-1.603m1.913-1.909c0 0-.807 1.01-2.65.31-2.081-.784-2.563.697-1.969 1.291 1.328 1.327 4.459-1.123 4.619-1.601"/></svg>

<?xml version="1.0" encoding="utf-8"?>
<!-- Generator: Adobe Illustrator 16.0.3, SVG Export Plug-In . SVG Version: 6.00 Build 0)  -->
<!DOCTYPE svg PUBLIC "-//W3C//DTD SVG 1.1//EN" "http://www.w3.org/Graphics/SVG/1.1/DTD/svg11.dtd">
<svg version="1.1" id="Layer_1" xmlns="http://www.w3.org/2000/svg" xmlns:xlink="http://www.w3.org/1999/xlink" x="0px" y="0px"
	 width="32px" height="32px" viewBox="0 0 32 32" enable-background="new 0 0 32 32" xml:space="preserve">
<path fill="#407CCA" d="M24.498,5.995H7.501V4h16.997V5.995z M25.526,8.545V26.3c0,0.935-0.766,1.7-1.7,1.7H8.173
	c-0.934,0-1.7-0.766-1.7-1.7V8.545c0-0.935,0.766-1.7,1.7-1.7h15.653C24.761,6.845,25.526,7.611,25.526,8.545z M18.227,13.764
	c1.409,1.411,2.928-3.078,2.928-3.078C20.689,10.792,16.823,12.359,18.227,13.764z M15.942,14.44
	c0.594,0.592,2.071,0.111,1.287-1.969c-0.696-1.845,0.313-2.648,0.313-2.648C17.061,9.986,14.617,13.114,15.942,14.44z
	 M14.03,16.353c0.594,0.592,2.075,0.109,1.288-1.969c-0.697-1.845,0.313-2.648,0.313-2.648
	C15.148,11.892,12.698,15.025,14.03,16.353z M12.108,19.67c-0.256-0.259-0.322-0.61-0.481-0.451l-1.575,1.925
	c-0.175,0.18,0.278,0.937,0.65,0.565l1.853-1.561C12.714,19.989,12.364,19.922,12.108,19.67z M13.349,16.356
	c-0.697-1.849,0.313-2.648,0.313-2.648c-0.484,0.159-2.932,3.286-1.604,4.614C12.651,18.92,14.136,18.432,13.349,16.356z
	 M18.102,18.15c0,0-0.803,1.009-2.65,0.308c-2.075-0.783-2.563,0.698-1.962,1.295C14.814,21.075,17.945,18.628,18.102,18.15z
	 M20.073,16.178c0,0-0.8,1.009-2.653,0.308c-2.071-0.783-2.562,0.697-1.962,1.295C16.783,19.106,19.914,16.659,20.073,16.178z
	 M21.986,14.269c0,0-0.807,1.01-2.65,0.31c-2.081-0.784-2.563,0.697-1.969,1.291C18.695,17.197,21.826,14.747,21.986,14.269z"/>
</svg>
